X: 22252
T: La Grondeuse
R: reel
M: 4/4
K: Dmajor
z2|ABAG F2DF|EDCD EA, A,2|ABAG F2DF|EDCE D2||
[M:3/2] DE|F2 DF EDCD EA,DE|F2 DF EDCE D2||[M:2/2]
ABAG FA (3AAA|BAcA d3B|ABAG F2DF|EDCD E2 (3EEE|
ABAG FA (3AAA|BAcA d3B|ABAG F2DF|EDCE D2 z2||
[M:3/2]|:A2 dc BABc ecec|defe dcBF A2 AB|
A2 dc BABc ecec|1 d2ef gfec d2cB:|2 d2ef gfec d2ef|[M:2/2] gagf edcB|AGFD E2 z2||

